X:944031
T:The Sound of Silence 3Voice P1
H: 
B: https://musescore.com/georgewu/ptxsoundofsilence, https://musescore.com/abchords321/scores/5449091
C:Simon and Garfunkel (Pentatonix / disturbed)
O:Transcribed by Kevin Fraser
Z:Kevin Fraser
Q:1/4=90
%K:AMix
K:A
%K:AMix sound=A_b
%K:{g}B{d}BMix score=_{g}B{e}A %concert Pitch
M:2/4
L:1/8
U: R = ///
U: r = //
I:MIDI=program 110
% I:linebreak $
%%MIDI gracedivider 100
V:M gstem=up stem=down name="Melody" sname=Melody transpose=2
V:H gstem=up stem=down name="Chord" sname=Ch transpose=2
V:C gstem=up stem=down name="Bass" sname=Bass transpose=2
V:P3 gstem=up stem=down name="Piper 3" sname=P3 transpose=2
V:P4 gstem=up stem=down name="Piper 4" sname=P4 transpose=2
V:BB gstem=up stem=down name="Brass Bass" sname="ABCD-C" transpose=0  octave=-1 clef=bass
V:BC gstem=up stem=down name="Brass Chord" sname="ABCD-D" transpose=1
V:BD gstem=up stem=down name="Brass Chord 2" sname="ABCD-B" transpose=1
V:P gstem=up stem=down name="Piano" transpose=2 clef=treble
V:Pb gstem=up stem=down name="Piano Bass" transpose=2 clef=bass
% %landscape off
%%landscape 
%%score {M H C (( P Pb ) 1 2 3 15 16 )}
% %barsperstaff 4
[V:P]
%%MIDI voice P instrument=1     %Piano
%%MIDI program 1
[V:P] !f!F,-CGC | [AF,-]FCG | C-F,- A2- | [F,CA]4 | F,CGC | AFCG | C-F,- A2- | [F,CA]4 |
[V:P] E,-B,FB, | GEB,F | [E,B-] [EB]3- | [EB]4 | F,CGC | AFCG | C-F,- A2- | [F,CA]4 |
[V:P] D,A,D [A,EA]- | [A,EA]3- [A,EAA,,]| A,,4 | [A,,-A,CE][A,CE][A,CE][A,CE] |D,A,D [A,EA]- | [A,EA]3- [A,EAA,,] | A,,4 | 
[V:P] D,A,DA, | FA,DA, | D,A,DA, | FA,DA, | A,EAE | CEAE | F,CFG | A3A,, | A,,4 | E,,B,,E,F | G3G | 
[V:P] [F,F]C BC | AC GC |]
%%MIDI channel 2
[V:M]
%%MIDI program 110
%%MIDI channel 1
[V:H]
%%MIDI program 110
%%MIDI channel 1
[V:C]
%%MIDI program 110
%%MIDI channel 1
     [V:M]!p!                         z4                              | z4                                         | z4                           | z4                          | z4                      | z4             | z z       {g}A{d}A |  {g}c{d}c {g}e{G}e | {gde}d4- | {gde}d4- | dG {g}G{d}G | {g}B{d}B {g}d{e}d | {gcd}c4- | {gcd}c4- | cA {g}A{d}A | {g}c{d}c {g}e{G}e | $
     [V:H]!p!                         z4                              | z4                                         | z4                           | z4                          | z4                      | z4             | z z       {g}A{d}A |  {g}c{d}c {g}e{G}e | {gde}d4- | {gde}d4- | dG {g}G{d}G | {g}B{d}B {g}d{e}d | {gcd}c4- | {gcd}c4- | cA {g}A{d}A | {g}c{d}c {g}e{G}e | $
     [V:C]   !p!                      z4                              | z4                                         | z4                           | z4                          | z4                      | z4             | z z       {g}A{d}A |  {g}c{d}c {g}e{G}e | {gde}d4- | {gde}d4- | dG {g}G{d}G | {g}B{d}B {g}d{e}d | {gcd}c4- | {gcd}c4- | cA {g}A{d}A | {g}c{d}c {g}e{G}e | $
w:  | | | | |       Hel-lo   dark-ness my old | friend   | -I've come to  talk with you  a  | gain      | - be cause a   vision softly | cre-ep-ing        |   -  left its seeds while I was |  sle-ep-ing |  $
% %barsperstaff 5
     [V:H]                         {g}d2{c}d{e}c-                  | c4-                                        | {g}c4                        | {g}c4                       | {g}d2{c}d{e}c-          | c4             | {AGAG}A2 {gef}e2  |
     [V:M]                         {g}f2{A}f{g}e-                  | e4-                                        | e2                  {g}A{d}A | {g}c{d}c           {g}e{G}e | {g}f2{A}f{g}e-          | e4-            | e2       {g}A{d}A |
     [V:C]                         {g}A4-                          | A4                                         | {g}A4-                       | A4                          | {g}A4-                  | A4             | {gcd}c4           |
% %barsperstaff 5
     [V:M]                         [M:4/4] {g}f{g}f- f2- | f2 {g} fg | {g}a{g}a-               a2 |{f}gf- f{gef}e- | e4-                 e2 fe-   | {gcd}c4- |c4-                    | cA      {g}A{d}A |  e4-| e2- eG | Af-      f2- | f4-      |]
w:    |                                   - and the                    |        vision   - - -       that was                      | planted   in   my brain                         | - - still     re-                         | mains                                                | -     within the                    |        sound   of | silence     | $
     [V:H]                         [M:4/4] {gde}d4 | {g}d2 G2        | {gAGAG}A4     | A4                            | {AGAG}A4            {gcd}c4  | {gef}e4        |    e2 f2-   |         f4       |  {g}c4 | c4  | Ac       GB |Ac Bd |]
     [V:C]                         [M:4/4] {AGAG}A4- |A2 d2         | {gfg}f4-|                {gde}d4            | {gcd}c4             {AGAG}A4 | {AGAG}A4       |    G2 A2-   |         A4       |  {g}A4 | A4  | c2       B2 |c2 d2 |]
W: Use Gracenotes or Strikes to separate repeated notes that don't have gracenote separators.

